public/static/lp/porter.svg

<svg width="80" height="20" viewBox="0 0 118 20" fill="none" xmlns="http://www.w3.org/2000/svg">
<g clip-path="url(#clip0_1431_34321)">
<path fill-rule="evenodd" clip-rule="evenodd" d="M49.778 9.85497C50.5357 9.85497 51.2356 9.763 51.8769 9.57904C52.5177 9.39531 53.0717 9.13291 53.538 8.79227C54.0045 8.45185 54.3687 8.03773 54.6311 7.55011C54.8932 7.06272 55.0248 6.50588 55.0248 5.88007V5.82484C55.0248 4.62889 54.5678 3.69513 53.6547 3.02311C52.741 2.35175 51.4587 2.01563 49.8071 2.01563H43.5117V9.85497H49.778ZM41.207 0H49.9642C51.225 0 52.3453 0.170237 53.3251 0.510713C54.3041 0.85164 55.114 1.32515 55.7543 1.93259C56.2582 2.41152 56.6463 2.97273 56.9179 3.61671C57.1892 4.26113 57.3254 4.96936 57.3254 5.74253V5.79777C57.3254 6.60771 57.1892 7.32992 56.9179 7.96487C56.6463 8.59983 56.2634 9.15203 55.7688 9.62148C55.274 10.0907 54.6872 10.4772 54.0087 10.7809C53.3295 11.0848 52.5928 11.3011 51.7975 11.4298L58.0641 19.3257H55.2371L49.3258 11.8163H43.5099V19.3257H41.207V0Z" fill="#979AAD"/>
<path fill-rule="evenodd" clip-rule="evenodd" d="M68.133 2.01535H61.1846V0H77.4173V2.01535H70.4689V19.3257H68.133V2.01535Z" fill="#979AAD"/>
<path fill-rule="evenodd" clip-rule="evenodd" d="M81.79 0H96.6276V1.98784H84.1069V8.58607H95.308V10.5739H84.1069V17.3381H96.7742V19.3257H81.79V0Z" fill="#979AAD"/>
<path fill-rule="evenodd" clip-rule="evenodd" d="M109.716 9.85497C110.473 9.85497 111.173 9.763 111.814 9.57904C112.456 9.39531 113.009 9.13291 113.476 8.79227C113.942 8.45185 114.306 8.03773 114.569 7.55011C114.831 7.06272 114.962 6.50588 114.962 5.88007V5.82484C114.962 4.62889 114.505 3.69513 113.592 3.02311C112.678 2.35175 111.396 2.01563 109.745 2.01563H103.449V9.85497H109.716ZM101.145 0H109.902C111.162 0 112.283 0.170237 113.263 0.510713C114.242 0.85164 115.052 1.32515 115.692 1.93259C116.196 2.41152 116.584 2.97273 116.855 3.61671C117.127 4.26113 117.263 4.96936 117.263 5.74253V5.79777C117.263 6.60771 117.127 7.32992 116.855 7.96487C116.584 8.59983 116.201 9.15203 115.707 9.62148C115.212 10.0907 114.625 10.4772 113.946 10.7809C113.267 11.0848 112.53 11.3011 111.735 11.4298L118.002 19.3257H115.175L109.263 11.8163H103.447V19.3257H101.145V0Z" fill="#979AAD"/>
<path fill-rule="evenodd" clip-rule="evenodd" d="M7.5199 10.5192C8.37541 10.5192 9.15634 10.4182 9.86269 10.2155C10.5686 10.013 11.176 9.72323 11.6832 9.34577C12.1906 8.96855 12.5784 8.52209 12.8473 8.00664C13.1156 7.49164 13.2502 6.91171 13.2502 6.26728V6.21227C13.2502 4.83165 12.7373 3.78723 11.7132 3.07853C10.6882 2.37008 9.33014 2.01563 7.63933 2.01563H2.35706V10.5192H7.5199ZM0 0H7.80445C8.97562 0 10.0432 0.142729 11.0067 0.427736C11.9697 0.71342 12.7935 1.11816 13.4787 1.64263C14.164 2.16709 14.6898 2.807 15.0573 3.56147C15.4246 4.31637 15.6084 5.17229 15.6084 6.12901V6.18425C15.6084 7.23341 15.3897 8.14932 14.9533 8.93128C14.5164 9.71392 13.9256 10.3717 13.1815 10.9054C12.4372 11.4393 11.5685 11.8398 10.5762 12.1063C9.58349 12.3732 8.53152 12.5065 7.41984 12.5065H2.35791V19.3257H0V0Z" fill="#979AAD"/>
<path fill-rule="evenodd" clip-rule="evenodd" d="M32.833 12.7504C30.2283 15.2136 25.9869 15.2136 23.3453 12.7504C20.7406 10.2871 20.7406 6.27565 23.3453 3.777C25.9497 1.27865 30.1911 1.31378 32.833 3.777C35.4745 6.24023 35.4745 10.252 32.833 12.7504ZM21.9167 2.42091C18.5004 5.64903 18.5004 10.8685 21.9167 14.0735L28.095 19.9113L34.2737 14.0735C37.6899 10.8456 37.6899 5.62595 34.2737 2.42091C30.8573 -0.806969 25.333 -0.806969 21.9167 2.42091Z" fill="#979AAD"/>
<path fill-rule="evenodd" clip-rule="evenodd" d="M31.3303 6.44141H29.3809V10.54H30.2394C30.2624 10.0772 30.688 9.70834 31.2093 9.70834C31.7309 9.70834 32.1565 10.0772 32.1793 10.54H33.0886V8.62718C32.9738 8.28565 32.0565 7.87593 32.0565 7.87593L31.3303 6.44141ZM31.0645 6.81706H30.0706V7.73687H31.5232L31.0645 6.81706Z" fill="#979AAD"/>
<path fill-rule="evenodd" clip-rule="evenodd" d="M29.3417 5.26953H23.7227V11.1247H24.3886C24.4109 10.6128 24.828 10.2047 25.339 10.2047C25.8503 10.2047 26.2673 10.6128 26.2897 11.1247H29.3417V5.26953ZM28.5923 9.00977H24.4717V9.12326H28.5923V9.00977ZM28.5923 6.74285H24.4717V6.85634H28.5923V6.74285ZM28.5923 7.91472H24.4717V8.02821H28.5923V7.91472Z" fill="#979AAD"/>
<path fill-rule="evenodd" clip-rule="evenodd" d="M33.4062 10.2264C33.4062 10.4064 33.338 10.5413 33.2471 10.5413C33.1561 10.5413 33.0879 10.4064 33.0879 10.2264V9.68605C33.0879 9.50604 33.1561 9.37109 33.2471 9.37109C33.338 9.37109 33.4062 9.50604 33.4062 9.68605V10.2264Z" fill="#979AAD"/>
<path fill-rule="evenodd" clip-rule="evenodd" d="M23.4178 10.8121C23.4178 10.9924 23.3496 11.1273 23.2588 11.1273C23.1679 11.1273 23.0996 10.9924 23.0996 10.8121V10.2722C23.0996 10.0919 23.1679 9.95703 23.2588 9.95703C23.3496 9.95703 23.4178 10.0919 23.4178 10.2722V10.8121Z" fill="#979AAD"/>
<path fill-rule="evenodd" clip-rule="evenodd" d="M31.8385 10.5422C31.8385 10.8653 31.5589 11.1273 31.2142 11.1273C30.8694 11.1273 30.5898 10.8653 30.5898 10.5422C30.5898 10.219 30.8694 9.95703 31.2142 9.95703C31.5589 9.95703 31.8385 10.219 31.8385 10.5422Z" fill="#979AAD"/>
<path fill-rule="evenodd" clip-rule="evenodd" d="M25.9508 11.0852C25.9508 11.4082 25.6712 11.6702 25.3263 11.6702C24.9817 11.6702 24.7021 11.4082 24.7021 11.0852C24.7021 10.762 24.9817 10.5 25.3263 10.5C25.6712 10.5 25.9508 10.762 25.9508 11.0852Z" fill="#979AAD"/>
</g>
<defs>
<clipPath id="clip0_1431_34321">
<rect width="118" height="20" fill="white"/>
</clipPath>
</defs>
</svg>

<svg xmlns="http://www.w3.org/2000/svg" width="80" height="20" fill="none" viewBox="0 0 118 20"><g fill="#979AAD" fill-rule="evenodd" clip-path="url(#a)" clip-rule="evenodd"><path d="M49.778 9.855a7.59 7.59 0 0 0 2.099-.276 5.235 5.235 0 0 0 1.661-.787 3.69 3.69 0 0 0 1.093-1.242c.262-.487.394-1.044.394-1.67v-.055c0-1.196-.457-2.13-1.37-2.802-.914-.671-2.196-1.007-3.848-1.007h-6.295v7.839h6.266ZM41.207 0h8.757c1.261 0 2.381.17 3.361.51.98.342 1.789.815 2.43 1.423.503.479.891 1.04 1.163 1.684.271.644.407 1.352.407 2.126v.055c0 .81-.136 1.532-.407 2.167a4.933 4.933 0 0 1-1.15 1.656 6.23 6.23 0 0 1-1.76 1.16 8.85 8.85 0 0 1-2.21.649l6.266 7.896h-2.827l-5.911-7.51H43.51v7.51h-2.303V0ZM68.133 2.015h-6.948V0h16.232v2.015H70.47v17.31h-2.336V2.016ZM81.79 0h14.838v1.988H84.107v6.598h11.201v1.988H84.107v6.764h12.667v1.988H81.79V0ZM109.716 9.855c.757 0 1.457-.092 2.098-.276a5.235 5.235 0 0 0 1.662-.787c.466-.34.83-.754 1.093-1.242.262-.487.393-1.044.393-1.67v-.055c0-1.196-.457-2.13-1.37-2.802-.914-.671-2.196-1.007-3.847-1.007h-6.296v7.839h6.267ZM101.145 0h8.757c1.26 0 2.381.17 3.361.51.979.342 1.789.815 2.429 1.423.504.479.892 1.04 1.163 1.684.272.644.408 1.352.408 2.126v.055c0 .81-.136 1.532-.408 2.167a4.93 4.93 0 0 1-1.148 1.656 6.23 6.23 0 0 1-1.761 1.16 8.85 8.85 0 0 1-2.211.649l6.267 7.896h-2.827l-5.912-7.51h-5.816v7.51h-2.302V0ZM7.52 10.52c.855 0 1.636-.102 2.343-.304.706-.203 1.313-.493 1.82-.87a3.926 3.926 0 0 0 1.164-1.34 3.708 3.708 0 0 0 .403-1.739v-.055c0-1.38-.513-2.425-1.537-3.133C10.688 2.37 9.33 2.016 7.64 2.016H2.357v8.503H7.52ZM0 0h7.804c1.172 0 2.24.143 3.203.428.963.285 1.787.69 2.472 1.215a5.33 5.33 0 0 1 1.578 1.918c.368.755.551 1.611.551 2.568v.055c0 1.05-.218 1.965-.655 2.747a6.013 6.013 0 0 1-1.771 1.974c-.745.534-1.614.935-2.606 1.201-.993.267-2.044.4-3.156.4H2.358v6.82H0V0ZM32.833 12.75c-2.605 2.464-6.846 2.464-9.488 0-2.604-2.463-2.604-6.474 0-8.973 2.605-2.498 6.846-2.463 9.488 0 2.642 2.463 2.642 6.475 0 8.973ZM21.917 2.42c-3.417 3.229-3.417 8.448 0 11.653l6.178 5.838 6.179-5.838c3.416-3.227 3.416-8.447 0-11.652-3.417-3.228-8.941-3.228-12.357 0Z"/><path d="M31.33 6.441h-1.95v4.099h.86c.022-.463.448-.832.97-.832.52 0 .947.37.97.832h.909V8.627c-.115-.341-1.032-.751-1.032-.751L31.33 6.44Zm-.265.376h-.994v.92h1.452l-.459-.92ZM29.342 5.27h-5.62v5.855h.667a.957.957 0 0 1 .95-.92c.511 0 .928.408.95.92h3.053V5.27Zm-.75 3.74h-4.12v.113h4.12V9.01Zm0-2.267h-4.12v.113h4.12v-.113Zm0 1.172h-4.12v.113h4.12v-.113Z"/><path d="M33.406 10.226c0 .18-.068.315-.159.315-.09 0-.16-.135-.16-.315v-.54c0-.18.07-.315.16-.315.091 0 .16.135.16.315v.54ZM23.418 10.812c0 .18-.068.315-.16.315-.09 0-.158-.135-.158-.315v-.54c0-.18.068-.315.159-.315.09 0 .159.135.159.315v.54ZM31.838 10.542c0 .323-.28.585-.624.585-.345 0-.624-.262-.624-.585 0-.323.28-.585.624-.585.345 0 .625.262.625.585ZM25.95 11.085c0 .323-.279.585-.624.585-.344 0-.624-.262-.624-.585 0-.323.28-.585.624-.585.345 0 .625.262.625.585Z"/></g><defs><clipPath id="a"><path fill="#fff" d="M0 0h118v20H0z"/></clipPath></defs></svg>
